!!!!SEGMENT: pl-cz--d-ii-31--004_elsner-jozef--msza-b-op-80-credo.krn
!!!cenid: 18xx:189
!!!COM: Elsner, Józef
!!!COM-rismID: pe30000957
!!!CDT: 1769/06/01-1854/04/18
!!!CNT: Polish
!!!OPR: Msza B op. 80
!!!OTL: Credo
!!!OMV: 004
!!!PDT:
!!!AGN: Sacred; Mass
!!!SMS-siglum: PL-CZ
!!!SMS-shelfmark: D II-31
!!!SMS-shelfwork: 001-004 M
!!!NIFC-rismSourceID:
!!!NIFC-rismChildID:
!!!NIFC-islandoraID:
!!!URL-pdf-islandora:
!!!URL-scan:
!!!ONB-nifc: UWAGA: części Mszy: Kyrie, Gloria, Graduale Duetto, Credo, Offertorium, Sanctus, Benedictus, Agnus Dei
!!!AIN: 1 bass 1 organ 2 soprn 1 tenor
!!!key:
**kern	**kern	**dynam	**kern	**text	**dynam	**kern	**text	**dynam	**kern	**text	**dynam	**kern	**text	**dynam
*part5	*part5	*part5	*part4	*part4	*part4	*part3	*part3	*part3	*part2	*part2	*part2	*part1	*part1	*part1
*staff6	*staff5	*	*staff4	*staff4	*	*staff3	*staff3	*	*staff2	*staff2	*	*staff1	*staff1	*
*Iorgan	*Iempty	*	*Ibass	*	*	*Itenor	*	*	*Isoprn	*	*	*Isoprn	*	*
*I"Organo	*	*	*I"Basso	*	*	*I"Tenore	*	*	*I"Soprano Secundo	*	*	*I"Soprano Primo	*	*
*I'Org	*	*	*I'B	*	*	*I'T	*	*	*I'S II	*	*	*I'S I	*	*
*group2	*group2	*	*group1	*	*	*group1	*	*	*group1	*	*	*group1	*	*
*clefF4	*clefG2	*	*clefF4	*	*	*clefC4	*	*	*clefG2	*	*	*clefG2	*	*
*k[b-e-]	*k[b-e-]	*	*k[b-e-]	*	*	*k[b-e-]	*	*	*k[b-e-]	*	*	*k[b-e-]	*	*
*g:	*g:	*	*g:	*	*	*g:	*	*	*g:	*	*	*g:	*	*
*M2/2	*M2/2	*	*M2/2	*	*	*M2/2	*	*	*M2/2	*	*	*M2/2	*	*
*met(c|)	*met(c|)	*	*met(c|)	*	*	*met(c|)	*	*	*met(c|)	*	*	*met(c|)	*	*
=1	=1	=1	=1	=1	=1	=1	=1	=1	=1	=1	=1	=1	=1	=1
!	!LO:TX:a:t=Allegro moderato	!	!	!	!	!	!	!	!	!	!	!LO:TX:a:B:t=Allegro moderato	!	!
2F#X\	2f#X/	ff	2F#X\	Wie-	ff	2F#X/	Wie-	ff	2f#X/	Wie-	ff	2f#X/	Wie-	ff
2G\	2g/	.	2G\	-rzę	.	2G/	-rzę	.	2g/	-rzę	.	2g/	-rzę	.
=2	=2	=2	=2	=2	=2	=2	=2	=2	=2	=2	=2	=2	=2	=2
2A\	2a/	.	2A\	w_Bo-	.	2A/	w_Bo-	.	2a/	w_Bo-	.	2a/	w_Bo-	.
4G\	4g/	.	4G\	-ga	.	4G/	-ga	.	4g/	-ga	.	4g/	-ga	.
4F#X\	4f#X/	.	4F#X\	ied-	.	4F#X/	ied-	.	4f#X/	ied-	.	4f#X/	ied-	.
=3	=3	=3	=3	=3	=3	=3	=3	=3	=3	=3	=3	=3	=3	=3
2G\	2g/	.	2G\	-ne-	.	2G/	-ne-	.	2g/	-ne-	.	2g/	-ne-	.
2A\	2a/	.	2A\	-go	.	2A/	-go	.	2a/	-go	.	2a/	-go	.
=4	=4	=4	=4	=4	=4	=4	=4	=4	=4	=4	=4	=4	=4	=4
2B-\	2b-/	.	2B-\	twór-	.	2B-\	twór-	.	2b-/	twór-	.	2b-/	twór-	.
2G\	2g/	.	2G\	-cę	.	2G\	-cę	.	2g/	-cę	.	2g/	-cę	.
=5	=5	=5	=5	=5	=5	=5	=5	=5	=5	=5	=5	=5	=5	=5
2F#X\	2f#X/	.	2F#X\	Nie-	.	2F#X/	Nie-	.	2f#X/	Nie-	.	2f#X/	Nie-	.
2G\	2g/	.	2G\	-ba	.	2G/	-ba	.	2g/	-ba	.	2g/	-ba	.
=6	=6	=6	=6	=6	=6	=6	=6	=6	=6	=6	=6	=6	=6	=6
2E-\	2e-/	.	2E-\	zie-	.	2E-/	zie-	.	2e-/	zie-	.	2e-/	zie-	.
2D\	2d/	.	2D\	-mi	.	2D/	-mi	.	2d/	-mi	.	2d/	-mi	.
=7	=7	=7	=7	=7	=7	=7	=7	=7	=7	=7	=7	=7	=7	=7
2FF#X/ 2F#X	2f#X/	.	2F#X\	Wszy-	.	2F#X/	Wszy-	.	2f#X/	Wszy-	.	2f#X/	Wszy-	.
2GG/ 2G	2g/	.	2G\	-stkich	.	2G/	-stkich	.	2g/	-stkich	.	2g/	-stkich	.
=8	=8	=8	=8	=8	=8	=8	=8	=8	=8	=8	=8	=8	=8	=8
2AA\ 2A	2a/	.	2A\	o-	.	2A\	o-	.	2a/	o-	.	2a/	o-	.
4GG\ 4G	4g/	.	4G\	-ku	.	4G/	-ku	.	4g/	-ku	.	4g/	-ku	.
4FF#X\ 4F#X	4f#X/	.	4F#X\	wi-	.	4F#X/	wi-	.	4f#X/	wi-	.	4f#X/	wi-	.
=9	=9	=9	=9	=9	=9	=9	=9	=9	=9	=9	=9	=9	=9	=9
2GG\ 2G	2g/	.	2G\	-do-	.	2G/	-do-	.	2g/	-do-	.	2g/	-do-	.
2AA\ 2A	2a/	.	2A\	-mych	.	2A/	-mych	.	2a/	-mych	.	2a/	-mych	.
=10	=10	=10	=10	=10	=10	=10	=10	=10	=10	=10	=10	=10	=10	=10
2BB-\ 2B-	2b-/	.	2B-\	i	.	2B-\	i	.	2b-/	i	.	2b-\	i	.
2GG\ 2G	2g/	.	2G\	taj-	.	2G\	taj-	.	2g/	taj-	.	2g/	taj-	.
=11	=11	=11	=11	=11	=11	=11	=11	=11	=11	=11	=11	=11	=11	=11
2FF#X/ 2F#X	2f#X/	.	2F#X\	-nych	.	2F#X/	-nych	.	2f#X/	-nych	.	2f#X/	-nych	.
2GG\ 2G	2g/	.	2G\	ist-	.	2G/	ist-	.	2g/	ist-	.	2g/	ist-	.
=12	=12	=12	=12	=12	=12	=12	=12	=12	=12	=12	=12	=12	=12	=12
1EE- 1E-	1g 1a 1cc#X	.	1E-	-no-	.	1E-	-no-	.	1e-	-no-	.	1e-	-no-	.
=13	=13	=13	=13	=13	=13	=13	=13	=13	=13	=13	=13	=13	=13	=13
!LO:LB:g=original	!LO:LB:g=original	!	!LO:LB:g=original	!	!	!LO:LB:g=original	!	!	!LO:LB:g=original	!	!	!LO:LB:g=original	!	!
[1DD [1D	2f#X/ 2a 2dd	.	2D/	-śći	.	2D/	-śći	.	2d/	-śći	.	2d/	-śći	.
.	2f#/ 2a	.	2D/	i	.	2F#X/	i	.	2d/	i	.	2a/	i	.
=14	=14	=14	=14	=14	=14	=14	=14	=14	=14	=14	=14	=14	=14	=14
1DD_ 1D_	2g/ 2b-	.	2D/	w_Sy-	.	2G/	w_Sy-	.	2d/	w_Sy-	.	2b-/	w_Sy-	.
.	2f#X/ 2a	.	2D/	-na	.	2F#X/	-na	.	2d/	-na	.	2a/	-na	.
=15	=15	=15	=15	=15	=15	=15	=15	=15	=15	=15	=15	=15	=15	=15
1DD_ 1D_	2d/ 2b- 2dd	.	2D/	zro-	.	2B-\	zro-	.	2d/	zro-	.	2dd\	zro-	.
.	2f#X/ 2a 2cc	.	2D/	-dzo-	.	2A\	-dzo-	.	2f#X/	-dzo-	.	2cc\	-dzo-	.
=16	=16	=16	=16	=16	=16	=16	=16	=16	=16	=16	=16	=16	=16	=16
1DD_ 1D_	2g/ 2b-	.	2D/	-ne-	.	2d\	-ne-	.	2g/	-ne-	.	2b-/	-ne-	.
.	4f#X/ 4a	.	4D/	-go	.	4d\	-go	.	4f#X/	-go	.	4a/	-go	.
.	4en/ 4g	.	4D/	przed	.	4d\	przed	.	4en/	przed	.	4g/	przed	.
=17	=17	=17	=17	=17	=17	=17	=17	=17	=17	=17	=17	=17	=17	=17
1DD_ 1D_	2f#X/ 2a	.	2D\	wie-	.	2d\	wie-	.	2f#X/	wie-	.	2a/	wie-	.
.	4g/ 4b-	.	4D\	-ki	.	4d\	-ki	.	4g/	-ki	.	4b-/	-ki	.
.	4f#/ 4a	.	4D\	wszy-	.	4d\	wszy-	.	4f#/	wszy-	.	4a/	wszy-	.
=18	=18	=18	=18	=18	=18	=18	=18	=18	=18	=18	=18	=18	=18	=18
1DD_ 1D_	2en/ 2g	.	2D/	-stkie-	.	2d\	-stkie-	.	2en/	-stkie-	.	2g/	-stkie-	.
.	2d/ 2f#X	.	2D/	-mi	.	2d\	-mi	.	2d/	-mi	.	2f#X/	-mi	.
=19	=19	=19	=19	=19	=19	=19	=19	=19	=19	=19	=19	=19	=19	=19
1DD_ 1D_	2f#X/ 2a 2dd	.	2r	.	.	2r	.	.	2r	.	.	2r	.	.
.	2f#/ 2a	.	2D\	Je-	.	2F#X/	Je-	.	2d/	Je-	.	2a/	Je-	.
=20	=20	=20	=20	=20	=20	=20	=20	=20	=20	=20	=20	=20	=20	=20
1DD_ 1D_	2g/ 2b-	.	2D\	-zu-	.	2G/	-zu-	.	2d/	-zu-	.	2b-/	-zu-	.
.	2f#X/ 2a	.	2D\	-sa	.	2F#X/	-sa	.	2d/	-sa	.	2a/	-sa	.
=21	=21	=21	=21	=21	=21	=21	=21	=21	=21	=21	=21	=21	=21	=21
1DD] 1D]	2d/ 2b- 2dd	.	2D\	Bo-	.	2B-\	Bo-	.	2d/	Bo-	.	2dd\	Bo-	.
.	2f#X/ 2a 2cc	.	2D\	-ga	.	2A\	-ga	.	2f#X/	-ga	.	2cc\	-ga	.
=22	=22	=22	=22	=22	=22	=22	=22	=22	=22	=22	=22	=22	=22	=22
*	*^	*	*	*	*	*	*	*	*	*	*	*	*	*
1GG 1G	2g/ 2b-	2ryy	.	2GG/ 2G	z_Bo-	.	2d\	z_Bo-	.	2g/	z_Bo-	.	2b-\	z_Bo-	.
.	4a/	4fn\	.	4GG/ 4G	-ga	.	4d\	-ga	.	4fn/	-ga	.	4a/	-ga	.
.	4g/	4en\	.	4GG/ 4G	i	.	4d\	i	.	4en/	i	.	4g/	i	.
=23	=23	=23	=23	=23	=23	=23	=23	=23	=23	=23	=23	=23	=23	=23	=23
[1AA [1A	2d/ 2fn	2ryy	.	2AA\ 2A	Swia-	.	2d\	Swia-	.	2d/	Swia-	.	2fn/	Swia-	.
.	4c#X/ 4en 4g	4ryy	.	4AA\ 4A	-tło	.	4c#X\	-tło	.	4en/	-tło	.	4g/	-tło	.
.	4f/	[4d\	.	4AA\ 4A	z_Swia-	.	4d\	z_Swia-	.	4d/	z_Swia-	.	4f/	z_Swia-	.
=24	=24	=24	=24	=24	=24	=24	=24	=24	=24	=24	=24	=24	=24	=24	=24
1AA] 1A]	1en	4d\]	.	1AA 1A	-tło-	.	(2.A\	-tło-	.	(>4d/	-tło-	.	1en	-tło-	.
.	.	8c#X\L	.	.	.	.	.	.	.	8c#X/L	.	.	.	.	.
.	.	8Bn\J	.	.	.	.	.	.	.	8Bn/J	.	.	.	.	.
.	.	2c#/	.	.	.	.	.	.	.	2c#/)	.	.	.	.	.
.	.	.	.	.	.	.	4G/)	.	.	.	.	.	.	.	.
*	*v	*v	*	*	*	*	*	*	*	*	*	*	*	*	*
=25	=25	=25	=25	=25	=25	=25	=25	=25	=25	=25	=25	=25	=25	=25
*^	*	*	*	*	*	*	*	*	*	*	*	*	*	*
1D 1F 1A	1DD	1d	.	2D/	-śći	.	2D/	-śći	.	2d/	-ści	.	2d/	-śći	.
.	.	.	.	2r	.	.	2r	.	.	2r	.	.	2r	.	.
=26	=26	=26	=26	=26	=26	=26	=26	=26	=26	=26	=26	=26	=26	=26	=26
!LO:PB:g=original	!LO:PB:g=original	!	!LO:PB:g=original	!	!	!LO:PB:g=original	!	!	!LO:PB:g=original	!	!	!LO:PB:g=original	!	!	!
1F 1A	1CC 1C	1e-X	.	1r	.	.	1r	.	.	1r	.	.	1r	.	.
=27	=27	=27	=27	=27	=27	=27	=27	=27	=27	=27	=27	=27	=27	=27	=27
!	!	!LO:TX:a:t=problem:niejednoznaczny zapis łuk lub ligatura w tt. 27-32	!	!LO:TX:a:t=Solo	!	!	!	!	!	!	!	!	!	!	!
1F 1B-	[1BBB- 1BB-	[>1d	.	4r	.	.	1r	.	.	1r	.	.	1r	.	.
.	.	.	.	2D\	On	.	.	.	.	.	.	.	.	.	.
.	.	.	.	4F\	z_Ma-	.	.	.	.	.	.	.	.	.	.
=28	=28	=28	=28	=28	=28	=28	=28	=28	=28	=28	=28	=28	=28	=28	=28
1F 1B-	1BBB-_ 1BB-	1d_>	.	2B-\	-ryi	.	1r	.	.	1r	.	.	1r	.	.
.	.	.	.	4F\	Dzie-	.	.	.	.	.	.	.	.	.	.
.	.	.	.	4d\	-wi-	.	.	.	.	.	.	.	.	.	.
=29	=29	=29	=29	=29	=29	=29	=29	=29	=29	=29	=29	=29	=29	=29	=29
1F 1B-	1BBB-_ 1BB-	(>1d]	.	(2B-\	-cy	.	2r	.	.	1r	.	.	1r	.	.
.	.	.	.	4F\)	.	.	4r	.	.	.	.	.	.	.	.
!	!	!	!	!	!	!	!LO:TX:a:t=Solo	!	!	!	!	!	!	!	!
.	.	.	.	4r	.	.	4d\	i	.	.	.	.	.	.	.
=30	=30	=30	=30	=30	=30	=30	=30	=30	=30	=30	=30	=30	=30	=30	=30
1F 1A	1BBB-_ 1BB-	(>1c) 1e-	.	1r	.	.	(4f\	Du-	.	1r	.	.	1r	.	.
.	.	.	.	.	.	.	4e-\)	.	.	.	.	.	.	.	.
.	.	.	.	.	.	.	4c\	-cha	.	.	.	.	.	.	.
.	.	.	.	.	.	.	4A\	wcie-	.	.	.	.	.	.	.
=31	=31	=31	=31	=31	=31	=31	=31	=31	=31	=31	=31	=31	=31	=31	=31
1F 1B-	1BBB-_ 1BB-	(>1d)	.	1r	.	.	2B-\	-lo-	.	1r	.	.	1r	.	.
.	.	.	.	.	.	.	4d\	-ny	.	.	.	.	.	.	.
.	.	.	.	.	.	.	4r	.	.	.	.	.	.	.	.
=32	=32	=32	=32	=32	=32	=32	=32	=32	=32	=32	=32	=32	=32	=32	=32
2G/ 2B-	1BBB-_ 1BB-	1e-)	.	2G\	Prze-	.	2e-\	Prze-	.	1r	.	.	1r	.	.
2A/ 2c	.	.	.	2A\	-miesz-	.	2e-\	-miesz-	.	.	.	.	.	.	.
=33	=33	=33	=33	=33	=33	=33	=33	=33	=33	=33	=33	=33	=33	=33	=33
1F 1B-	1BBB-_ 1BB-	1d	.	(4B-\	-ki-	.	2d\	-ki-	.	1r	.	.	1r	.	.
.	.	.	.	4F\)	.	.	.	.	.	.	.	.	.	.	.
.	.	.	.	4D\	-wał	.	4B-\	-wał	.	.	.	.	.	.	.
.	.	.	.	4F\	na	.	4d\	na	.	.	.	.	.	.	.
=34	=34	=34	=34	=34	=34	=34	=34	=34	=34	=34	=34	=34	=34	=34	=34
2G/ 2B-	1BBB-_ 1BB-	1e-	.	2G\	zie-	.	2e-\	zie-	.	1r	.	.	1r	.	.
2A/ 2c	.	.	.	4A\	-mi	.	4e-\	-mi	.	.	.	.	.	.	.
.	.	.	.	4A\	w_czło-	.	4e-\	w_czło-	.	.	.	.	.	.	.
=35	=35	=35	=35	=35	=35	=35	=35	=35	=35	=35	=35	=35	=35	=35	=35
1F 1B-	1BBB-] 1BB-	1d	.	(4B-\	-wie-	.	2d\	-wie-	.	1r	.	.	1r	.	.
.	.	.	.	4F\)	.	.	.	.	.	.	.	.	.	.	.
.	.	.	.	4D\	-czej	.	4B-\	-czej	.	.	.	.	.	.	.
.	.	.	.	4F\	o-	.	4d\	o-	.	.	.	.	.	.	.
=36	=36	=36	=36	=36	=36	=36	=36	=36	=36	=36	=36	=36	=36	=36	=36
2F/ 2A 2c	[<1FF	1r	.	(2A\	-so-	.	(2c\	-so-	.	1r	.	.	1r	.	.
4G#X/ 4Bn	.	.	.	4G#X\)	.	.	4Bn\)	.	.	.	.	.	.	.	.
4A/ 4c	.	.	.	4A\	.	.	4c\	.	.	.	.	.	.	.	.
=37	=37	=37	=37	=37	=37	=37	=37	=37	=37	=37	=37	=37	=37	=37	=37
1F 1A 1c	1FF_	1r	.	2A\	-bie	.	2c\	-bie	.	1r	.	.	1r	.	.
.	.	.	.	4A\	I	.	4c\	I	.	.	.	.	.	.	.
.	.	.	.	4A\	pod	.	4c\	pod	.	.	.	.	.	.	.
=38	=38	=38	=38	=38	=38	=38	=38	=38	=38	=38	=38	=38	=38	=38	=38
2.B-/ 2.d-X	1FF_ 1F	1r	.	2B-\	Pont-	.	2d-X\	Pont-	.	1r	.	.	1r	.	.
.	.	.	.	4B-\	-skim	.	4d-\	-skim	.	.	.	.	.	.	.
4A/ 4c	.	.	.	4A\	Pi-	.	4c\	Pi-	.	.	.	.	.	.	.
=39	=39	=39	=39	=39	=39	=39	=39	=39	=39	=39	=39	=39	=39	=39	=39
!LO:LB:g=original	!LO:LB:g=original	!	!LO:LB:g=original	!	!	!LO:LB:g=original	!	!	!LO:LB:g=original	!	!	!LO:LB:g=original	!	!	!
2.B-/ 2.d-X	1FF_> 1F	1r	.	2B-\	-ła-	.	2d-X\	-ła-	.	1r	.	.	1r	.	.
.	.	.	.	4B-\	-tem	.	4d-\	-tem	.	.	.	.	.	.	.
4A/ 4c	.	.	.	4A\	za	.	4c\	za	.	.	.	.	.	.	.
=40	=40	=40	=40	=40	=40	=40	=40	=40	=40	=40	=40	=40	=40	=40	=40
2B-/ 2d-X	1FF_> 1F	2ryy	.	2B-\	nas	.	2d-X\	nas	.	1r	.	.	1r	.	.
2G/	.	2B-< >2en/	.	4.G\	u-	.	4.B-\	u-	.	.	.	.	.	.	.
.	.	.	.	8En\	-mę-	.	8c\	-mę-	.	.	.	.	.	.	.
=41	=41	=41	=41	=41	=41	=41	=41	=41	=41	=41	=41	=41	=41	=41	=41
1F 1A 1c	1FF]	2f/	.	2F\	-czo-	.	2A\	-czo-	.	1r	.	.	1r	.	.
.	.	2e-X/	.	4F\	-ny	.	4A\	-ny	.	.	.	.	.	.	.
.	.	.	.	4r	.	.	4r	.	.	.	.	.	.	.	.
=42	=42	=42	=42	=42	=42	=42	=42	=42	=42	=42	=42	=42	=42	=42	=42
1G-X 1B-	[>1GG-X	1d-X	.	2G-X\	u-	.	2B-\	u-	.	1r	.	.	1r	.	.
.	.	.	.	4G-\	-marł	.	4B-\	-marł	.	.	.	.	.	.	.
.	.	.	.	4G-\	dla	.	4B-\	dla	.	.	.	.	.	.	.
*v	*v	*	*	*	*	*	*	*	*	*	*	*	*	*	*
=43	=43	=43	=43	=43	=43	=43	=43	=43	=43	=43	=43	=43	=43	=43
2GG-X/] 2G-X	1B- 1d-X 1g-X	.	2B-\	do-	.	2d-X\	do-	.	1r	.	.	1r	.	.
2GGG-X/ 2GG-X	.	.	2G-X\	-bra	.	2B-\	-bra	.	.	.	.	.	.	.
=44	=44	=44	=44	=44	=44	=44	=44	=44	=44	=44	=44	=44	=44	=44
1AAA-X [1AA-X	1A-X 1d-X 1f	.	2F\	lu-	.	2A-X\	lu-	.	1r	.	.	1r	.	.
.	.	.	2F\	-du	.	2d-X\	-du	.	.	.	.	.	.	.
=45	=45	=45	=45	=45	=45	=45	=45	=45	=45	=45	=45	=45	=45	=45
*	*^	*	*	*	*	*	*	*	*	*	*	*	*	*
1AAA-X 1AA-X_	4e-/ 4g-X	1A-X	.	4G-X\	i	.	4c\	i	.	1r	.	.	1r	.	.
.	(<4d-X/ 4f	.	.	4F\	spo-	.	4d-X\	spo-	.	.	.	.	.	.	.
.	2d-/ 2f 2a-X	.	.	4D-X\	-czy-	.	4f\	-czy-	.	.	.	.	.	.	.
.	.	.	.	4F\	-wał	.	4d-\	-wał	.	.	.	.	.	.	.
=46	=46	=46	=46	=46	=46	=46	=46	=46	=46	=46	=46	=46	=46	=46	=46
1AAA-X 1AA-X]	1e- 1g-X	4d-X\)	.	1E-	w_gro-	.	(4d-X\	w_gro-	.	1r	.	.	1r	.	.
.	.	8c\L	.	.	.	.	8c\L	.	.	.	.	.	.	.	.
.	.	8B-\J	.	.	.	.	8B-\J	.	.	.	.	.	.	.	.
.	.	2c\	.	.	.	.	2c\)	.	.	.	.	.	.	.	.
*	*v	*v	*	*	*	*	*	*	*	*	*	*	*	*	*
=47	=47	=47	=47	=47	=47	=47	=47	=47	=47	=47	=47	=47	=47	=47
4DD-X/ 4D-X	4d-X/ 4f	.	2D-X\	-bie	.	2d-X\	-bie	.	1r	.	.	1r	.	.
!	!LO:TX:a:t=problem:niejednoznaczny zapis łuku	!	!	!	!	!	!	!	!	!	!	!	!	!
(4D-\	(4d-/	.	.	.	.	.	.	.	.	.	.	.	.	.
4C\	4c/	.	2r	.	.	2r	.	.	.	.	.	.	.	.
4D-\	4d-/	.	.	.	.	.	.	.	.	.	.	.	.	.
=48	=48	=48	=48	=48	=48	=48	=48	=48	=48	=48	=48	=48	=48	=48
!	!	!	!LO:TX:a:t=Tutti	!	!	!LO:TX:a:t=Tutti	!	!	!	!	!	!	!	!
2F\)	2f/)	.	1r	.	.	1r	.	.	1r	.	.	1r	.	.
2D-X\	2d-X/	.	.	.	.	.	.	.	.	.	.	.	.	.
=49	=49	=49	=49	=49	=49	=49	=49	=49	=49	=49	=49	=49	=49	=49
!	!	!LO:DY:a	!	!	!	!	!	!	!	!	!	!	!	!
1AA-X	4A-X/	<	1r	.	.	1r	.	.	1r	.	.	1r	.	.
.	4f/ 4a-X	.	.	.	.	.	.	.	.	.	.	.	.	.
.	4en/ 4g 4b-	.	.	.	.	.	.	.	.	.	.	.	.	.
.	4e-X/ 4g-X 4cc	.	.	.	.	.	.	.	.	.	.	.	.	.
=50	=50	=50	=50	=50	=50	=50	=50	=50	=50	=50	=50	=50	=50	=50
4DD-X/ 4D-X	1f 1a-X 1dd-X	[ ff	1D-X	Zmar-	ff	1f	Zmar-	ff	1a-X	Zmar-	ff	1dd-X	Zmar-	ff
4AA-X/ 4A-X	.	.	.	.	.	.	.	.	.	.	.	.	.	.
4FF/ 4F	.	.	.	.	.	.	.	.	.	.	.	.	.	.
4DD-/ 4D-	.	.	.	.	.	.	.	.	.	.	.	.	.	.
=51	=51	=51	=51	=51	=51	=51	=51	=51	=51	=51	=51	=51	=51	=51
4CC/ 4C	1a-X 1cc 1ee-X	.	1C	-twych-	.	1e-	-twych-	.	1a-X	-twych-	.	1ee-	-twych-	.
4AA-X/ 4A-X	.	.	.	.	.	.	.	.	.	.	.	.	.	.
4EE-/ 4E-	.	.	.	.	.	.	.	.	.	.	.	.	.	.
4CC/ 4C	.	.	.	.	.	.	.	.	.	.	.	.	.	.
=52	=52	=52	=52	=52	=52	=52	=52	=52	=52	=52	=52	=52	=52	=52
4BBB-/ 4BB-	1a-X 1b- 1ddn 1ff	.	1BB-	-wstał	.	1dn	-wstał	.	1a-X	-wstał	.	1ff	-wstał	.
4AA-X\ 4A-X	.	.	.	.	.	.	.	.	.	.	.	.	.	.
4FF/ 4F	.	.	.	.	.	.	.	.	.	.	.	.	.	.
4BBB-/ 4BB-	.	.	.	.	.	.	.	.	.	.	.	.	.	.
=53	=53	=53	=53	=53	=53	=53	=53	=53	=53	=53	=53	=53	=53	=53
!LO:PB:g=original	!LO:PB:g=original	!	!LO:PB:g=original	!	!	!LO:PB:g=original	!	!	!LO:PB:g=original	!	!	!LO:PB:g=original	!	!
2EE-/ 2E-	4g\ 4b- 4ee- 4gg	.	4E-\	dnia	.	4e-\	dnia	.	4g/	dnia	.	4gg\	dnia	.
.	4g\ 4b- 4ee-	.	4E-\	trze-	.	4B-\	trze-	.	4g/	trze-	.	4ee-\	trze-	.
4FF/ 4F	4a-X\ 4b- 4ee-	.	4F\	-cie-	.	4B-\	-cie-	.	4a-X/	-cie-	.	4dd\	-cie-	.
4GG/ 4G	4e-\ 4b- 4ee-	.	4G\	-go	.	4B-\	-go	.	4g/	-go	.	4ee-\	-go	.
=54	=54	=54	=54	=54	=54	=54	=54	=54	=54	=54	=54	=54	=54	=54
4AA-X\ 4A-X	4f\ 4b- 4dd	.	4A-X\	po-	.	4B-\	po-	.	4f/	po-	.	4dd\	po-	.
4GG\ 4G	4e-\ 4b- 4ee-	.	4G\	-dług	.	4B-\	-dług	.	4e-/	-dług	.	4ee-\	-dług	.
4BB-\ 4B-	4b-/	.	4B-\	praw	.	4B-\	praw	.	4b-/	praw	.	4b-\	praw	.
8GG\L 8G	8g/L	.	8G\L	praw-	.	8G/L	praw-	.	8g/L	praw-	.	8g/L	praw-	.
8EE-\J 8E-	8e-/J	.	8E-\J	.	.	8E-/J	.	.	8e-/J	.	.	8e-/J	.	.
=55	=55	=55	=55	=55	=55	=55	=55	=55	=55	=55	=55	=55	=55	=55
*	*^	*	*	*	*	*	*	*	*	*	*	*	*	*
!	!LO:TX:a:t=problem:niewyraźne rozpoczęcie łuku	!	!	!	!	!	!	!	!	!	!	!	!	!	!
2BBB-/ 2BB-	[1b-	4d\ 4f	.	2B-\	-dzi-	.	2B-\	-dzi-	.	2b-\	-dzi-	.	2b-\	-dzi-	.
.	.	4e-\ 4g	.	.	.	.	.	.	.	.	.	.	.	.	.
2BBB-/ 2BB-	.	4d\ 4f	.	4B-\	-wych	.	4B-\	-wych	.	4b-\	-wych	.	4b-\	-wych	.
.	.	4e-\ 4g	.	4r	.	.	4r	.	.	4r	.	.	4r	.	.
*	*v	*v	*	*	*	*	*	*	*	*	*	*	*	*	*
=56	=56	=56	=56	=56	=56	=56	=56	=56	=56	=56	=56	=56	=56	=56
1BBB- [1BB-	2d/ 2f 2b-]	.	2BB-/	Wstą-	.	2B-\	Wstą-	.	2d/	Wstą-	.	2b-\	Wstą-	.
.	2f/ 2an 2cc	.	2BB-/	-pił	.	2An\	-pił	.	2f/	-pił	.	2cc\	-pił	.
=57	=57	=57	=57	=57	=57	=57	=57	=57	=57	=57	=57	=57	=57	=57
1BBB- 1BB-_	1f 1a-X 1b- 1dd	.	2BB-/	w_Nie-	.	2A-X/	w_Nie-	.	2b-/	w_Nie-	.	2dd\	w_Nie-	.
.	.	.	4BB-/	-bo	.	4A-/	-bo	.	4b-/	-bo	.	4dd\	-bo	.
.	.	.	4BB-/	i	.	4A-/	i	.	4b-/	i	.	4dd\	i	.
=58	=58	=58	=58	=58	=58	=58	=58	=58	=58	=58	=58	=58	=58	=58
1BBB- 1BB-_	1g 1b- 1ee-	.	2BB-/	za-	.	2G/	za-	.	2b-/	za-	.	2ee-\	za-	.
.	.	.	4BB-/	-siadł	.	4G/	-siadł	.	4b-/	-siadł	.	4ee-\	-siadł	.
.	.	.	4BB-/	na	.	4e-\	na	.	4g/	na	.	4ee-\	na	.
=59	=59	=59	=59	=59	=59	=59	=59	=59	=59	=59	=59	=59	=59	=59
*	*^	*	*	*	*	*	*	*	*	*	*	*	*	*
1BBB- 1BB-_	2dd/ 2ff	1b-	.	2BB-/	Oj-	.	2d\	Oj-	.	2b-/	Oj-	.	2ff\	Oj-	.
.	2ee-/ 2gg	.	.	4BB-/	-ca	.	4e-\	-ca	.	4b-/	-ca	.	4gg\	-ca	.
.	.	.	.	4BB-/	pra-	.	4e-\	pra-	.	4b-/	pra-	.	4gg\	pra-	.
=60	=60	=60	=60	=60	=60	=60	=60	=60	=60	=60	=60	=60	=60	=60	=60
2.BBB-/ 2.BB-]	2.dd/ 2.ff	2.b-\	.	2BB-/	-wi-	.	2d\	-wi-	.	2b-/	-wi-	.	2ff\	-wi-	.
.	.	.	.	4BB-/	-cy	.	4d\	-cy	.	4b-/	-cy	.	4ff\	-cy	.
4D\ 4d	4dd/	4dd\	.	4d\	A	.	4d\	A	.	4dd\	A	.	4dd\	A	.
*	*v	*v	*	*	*	*	*	*	*	*	*	*	*	*	*
=61	=61	=61	=61	=61	=61	=61	=61	=61	=61	=61	=61	=61	=61	=61
2E-\ 2e-	2ee-\	.	2e-\	ztam-	.	2e-\	ztam-	.	2ee-\	ztam-	.	2ee-\	ztam-	.
2BBn\ 2Bn	2bn\	.	2Bn\	-tąd	.	2Bn\	-tąd	.	2bn\	-tąd	.	2bn\	-tąd	.
=62	=62	=62	=62	=62	=62	=62	=62	=62	=62	=62	=62	=62	=62	=62
2C\ 2c	2cc\	.	2c\	przy-	.	2c\	przy-	.	2cc\	przy-	.	2cc\	przy-	.
2FF#X/ 2F#X	2f#X/	.	2F#X\	-dzie	.	2F#X/	-dzie	.	2f#X/	-dzie	.	2f#X/	-dzie	.
=63	=63	=63	=63	=63	=63	=63	=63	=63	=63	=63	=63	=63	=63	=63
2GG/ 2G	2g/	.	2G\	są-	.	2G/	są-	.	2g/	są-	.	2g/	są-	.
4FFn/ 4Fn	4fn/	.	4Fn\	-dzić	.	4Fn/	-dzić	.	4fn/	-dzić	.	4fn/	-dzić	.
4DD/ 4D	4d/	.	4D\	u-	.	4D/	u-	.	4d/	u-	.	4d/	u-	.
=64	=64	=64	=64	=64	=64	=64	=64	=64	=64	=64	=64	=64	=64	=64
2EE-/ 2E-	2e-/	.	2E-\	-mar-	.	2E-/	-mar-	.	2e-/	-mar-	.	2e-/	-mar-	.
4CC/ 4C	4c/	.	4C/	-łych	.	4C/	-łych	.	4c/	-łych	.	4c/	-łych	.
4EE-/ 4E-	4e-/	.	4E-\	i	.	4E-/	i	.	4e-/	i	.	4e-/	i	.
=65	=65	=65	=65	=65	=65	=65	=65	=65	=65	=65	=65	=65	=65	=65
!LO:LB:g=original	!LO:LB:g=original	!	!LO:LB:g=original	!	!	!LO:LB:g=original	!	!	!LO:LB:g=original	!	!	!LO:LB:g=original	!	!
*	*^	*	*	*	*	*	*	*	*	*	*	*	*	*
2GG\ 2G	2g/	4Bn\ 4d	.	2G\	ży-	.	2G/	ży-	.	2g/	ży-	.	2g/	ży-	.
.	.	4c\ 4e-	.	.	.	.	.	.	.	.	.	.	.	.	.
2GG\ 2G	4g/	4B\ 4d	.	4G\	-wych	.	4G/	-wych	.	4g/	-wych	.	4g/	-wych,	.
.	4e-/ 4g 4cc	4ryy	.	4G\	Nie	.	4e-\	Nie	.	4g/	Nie	.	4cc\	Nie	.
*	*v	*v	*	*	*	*	*	*	*	*	*	*	*	*	*
=66	=66	=66	=66	=66	=66	=66	=66	=66	=66	=66	=66	=66	=66	=66
[>1GG [1G	4d/ 4f 4g 4bn	.	4G\	bę-	.	4d\	bę-	.	4f/	bę-	.	4bn\	bę-	.
.	4e-/ 4g 4cc	.	4G\	-dzie	.	4e-\	-dzie	.	4e-/	-dzie	.	4cc\	-dzie	.
.	4d/ 4f 4g 4b	.	4G\	Pań-	.	4d\	Pań-	.	4f/	Pań-	.	4b\	Pań-	.
.	4e-/ 4g 4cc	.	4G\	-stwa	.	4e-\	-stwa	.	4e-/	-stwa	.	4cc\	-stwa	.
=67	=67	=67	=67	=67	=67	=67	=67	=67	=67	=67	=67	=67	=67	=67
1GG] 1G]	4g\ 4cc 4ee-	.	4G\	Je-	.	4c\	Je-	.	4g/	Je-	.	4ee-\	Je-	.
.	4f\ 4bn 4dd	.	4G\	-go	.	4d\	-go	.	4f/	-go	.	4dd\	-go	.
.	4e-\ 4g 4cc	.	4G\	koń-	.	4e-\	koń-	.	4e-/	koń-	.	4cc\	koń-	.
.	4d\ 4f 4bn	.	4G\	-ca	.	4f\	-ca	.	4d/	-ca	.	4bn\	-ca	.
=68	=68	=68	=68	=68	=68	=68	=68	=68	=68	=68	=68	=68	=68	=68
2CC/ 2C	2e-/ 2g 2cc	.	2C/	i	.	2e-\	i	.	2e-/	i	.	2cc\	i	.
2FF/ 2F	2c/ 2f 2a-X	.	2F\	gra-	.	2c\	gra-	.	2f/	gra-	.	2a-X/	gra-	.
=69	=69	=69	=69	=69	=69	=69	=69	=69	=69	=69	=69	=69	=69	=69
*	*^	*	*	*	*	*	*	*	*	*	*	*	*	*
1GG 1G	1g	2c\ 2e-	.	1G	-ni-	.	(2c\	-ni-	.	(2e-/	-ni-	.	1g	-ni-	.
.	.	2Bn\ 2d 2f	.	.	.	.	2Bn\)	.	.	2d/)	.	.	.	.	.
*	*v	*v	*	*	*	*	*	*	*	*	*	*	*	*	*
=70	=70	=70	=70	=70	=70	=70	=70	=70	=70	=70	=70	=70	=70	=70
2CC/ 2C	2c/ 2e- 2g	.	2C/	-cy	.	2c\	-cy	.	2e-/	-cy	.	2g/	-cy	.
4EE-/ 4E-	4e-/	.	4E-\	i	.	4E-/	i	.	4e-/	i	.	4e-/	i	.
4CC/ 4C	4c/	.	4C\	gra-	.	4C/	gra-	.	4c/	gra-	.	4c/	gra-	.
=71	=71	=71	=71	=71	=71	=71	=71	=71	=71	=71	=71	=71	=71	=71
[>2GG\ [2G	[>2g/	.	2G\	-ni-	.	2G/	-ni-	.	2g/	-ni-	.	2g/	-ni-	.
4GG\] 4G]	4g/]	.	4G\	-cy	.	4G/	-cy	.	4g/	-cy	.	4g/	-cy	.
4r	4r	.	4r	.	.	4r	.	.	4r	.	.	4r	.	.
=72	=72	=72	=72	=72	=72	=72	=72	=72	=72	=72	=72	=72	=72	=72
2F#X\	2f#X/	.	2F#X\	Wie-	.	2F#X/	Wie-	.	2f#X/	Wie-	.	2f#X/	Wie-	.
2G\	2g/	.	2G\	-rzę	.	2G/	-rzę	.	2g/	-rzę	.	2g/	-rzę	.
=73	=73	=73	=73	=73	=73	=73	=73	=73	=73	=73	=73	=73	=73	=73
2A\	2a/	.	2A\	w du-	.	2A\	w du-	.	2a/	w du-	.	2a/	w du-	.
4G\	4g/	.	4G\	-cha	.	4G\	-cha	.	4g/	-cha	.	4g/	-cha	.
4F#X\	4f#X/	.	4F#X\	Swię-	.	4F#X\	Swię-	.	4f#X/	Swię-	.	4f#X/	Swię-	.
=74	=74	=74	=74	=74	=74	=74	=74	=74	=74	=74	=74	=74	=74	=74
2G\	2g/	.	2G\	-te-	.	2G\	-te-	.	2g/	-te-	.	2g/	-te-	.
2A\	2a/	.	2A\	-go	.	2A\	-go	.	2a/	-go	.	2a/	-go	.
=75	=75	=75	=75	=75	=75	=75	=75	=75	=75	=75	=75	=75	=75	=75
2B-\	2b-/	.	2B-\	któ-	.	2B-\	któ-	.	2b-\	któ-	.	2b-/	któ-	.
2G\	2g/	.	2G\	-ry	.	2G\	-ry	.	2g/	-ry	.	2g/	-ry	.
=76	=76	=76	=76	=76	=76	=76	=76	=76	=76	=76	=76	=76	=76	=76
2F#X\	2f#X/	.	2F#X\	sam	.	2F#X/	sam	.	2f#X/	sam	.	2f#X/	sam	.
2G\	2g/	.	2G\	po-	.	2G/	po-	.	2g/	po-	.	2g/	po-	.
=77	=77	=77	=77	=77	=77	=77	=77	=77	=77	=77	=77	=77	=77	=77
!LO:PB:g=original	!LO:PB:g=original	!	!LO:PB:g=original	!	!	!LO:PB:g=original	!	!	!LO:PB:g=original	!	!	!LO:PB:g=original	!	!
2E-\	2e-/	.	2E-\	-cho-	.	2E-/	-cho-	.	2e-/	-cho-	.	2e-/	-cho-	.
2D\	2d/	.	2D\	-dzi	.	2D/	-dzi	.	2d/	-dzi	.	2d/	-dzi	.
=78	=78	=78	=78	=78	=78	=78	=78	=78	=78	=78	=78	=78	=78	=78
2FF#X/ 2F#X	2f#X/	.	2F#X\	od	.	2F#X/	od	.	2f#X/	od	.	2f#X/	od	.
2GG/ 2G	2g/	.	2G\	Oy-	.	2G/	Oy-	.	2g/	Oy-	.	2g/	Oy-	.
=79	=79	=79	=79	=79	=79	=79	=79	=79	=79	=79	=79	=79	=79	=79
2AA\ 2A	2a/	.	2A\	-ca	.	2A\	-ca	.	2a/	-ca	.	2a/	-ca	.
4GG\ 4G	4g/	.	4G\	i	.	4G\	i	.	4g/	i	.	4g/	i	.
4FF#X\ 4F#X	4f#X/	.	4F#X\	od	.	4F#X\	od	.	4f#X/	od	.	4f#X/	od	.
=80	=80	=80	=80	=80	=80	=80	=80	=80	=80	=80	=80	=80	=80	=80
2GG\ 2G	2g/	.	2G\	Sy-	.	2G/	Sy-	.	2g/	Sy-	.	2g/	Sy-	.
2AA\ 2A	2a/	.	2A\	-na	.	2A/	-na	.	2a/	-na	.	2a/	-na	.
=81	=81	=81	=81	=81	=81	=81	=81	=81	=81	=81	=81	=81	=81	=81
2BB-\ 2B-	2b-\	.	2B-\	co	.	2B-\	co	.	2b-/	co	.	2b-\	co	.
2GG\ 2G	2g/	.	2G\	w nas	.	2G/	w nas	.	2g/	w nas	.	2g/	w nas	.
=82	=82	=82	=82	=82	=82	=82	=82	=82	=82	=82	=82	=82	=82	=82
2FF#X\ 2F#X	2f#X/	.	2F#X\	ży-	.	2F#X/	ży-	.	2f#X/	ży-	.	2f#X/	ży-	.
2GG\ 2G	2g/	.	2G\	-wot	.	2G/	-wot	.	2g/	-wot	.	2g/	-wot	.
=83	=83	=83	=83	=83	=83	=83	=83	=83	=83	=83	=83	=83	=83	=83
1EE- 1E-	1g 1a 1cc#X	.	1E-	ro-	.	1E-	ro-	.	1e-	ro-	.	1e-	ro-	.
=84	=84	=84	=84	=84	=84	=84	=84	=84	=84	=84	=84	=84	=84	=84
[1DD [1D	2f#X/ 2a 2dd	.	2D\	-dzi	.	2D/	-dzi	.	2d/	-dzi	.	2d/	-dzi	.
.	2f#/ 2a	.	2D\	Ró-	.	2F#X/	Ró-	.	2d/	Ró-	.	2a/	Ró-	.
=85	=85	=85	=85	=85	=85	=85	=85	=85	=85	=85	=85	=85	=85	=85
1DD_ 1D_	2g/ 2b-	.	2D/	-wny	.	2G/	-wny	.	2d/	-wny	.	2b-\	-wny	.
.	2f#X/ 2a	.	2D/	im	.	2F#X/	im	.	2d/	im	.	2a/	im	.
=86	=86	=86	=86	=86	=86	=86	=86	=86	=86	=86	=86	=86	=86	=86
1DD_ 1D_	2d/ 2b- 2dd	.	2D\	w_Bós-	.	2B-\	w_Bós-	.	2d/	w_Bós-	.	2dd\	w_Bós-	.
.	2f#X/ 2a 2cc	.	2D\	-twie	.	2A\	-twie	.	2f#X/	-twie	.	2cc\	-twie	.
=87	=87	=87	=87	=87	=87	=87	=87	=87	=87	=87	=87	=87	=87	=87
1DD_ 1D_	2g/ 2b-	.	2D\	ró-	.	2d\	ró-	.	2g/	ró-	.	2b-/	ró-	.
.	4f#X/ 4a	.	4D\	-wną	.	4d\	-wną	.	4f#X/	-wną	.	4a/	-wną	.
.	4en/ 4g	.	4D\	cześć	.	4d\	cześć	.	4en/	cześć	.	4g/	cześć	.
=88	=88	=88	=88	=88	=88	=88	=88	=88	=88	=88	=88	=88	=88	=88
1DD_ 1D_	2f#X/ 2a	.	2D\	z_nie-	.	2d\	z_nie-	.	2f#X/	z_nie-	.	2a/	z_nie-	.
.	4g/ 4b-	.	4D\	-mi	.	4d\	-mi	.	4g/	-mi	.	4b-/	-mi	.
.	4f#/ 4a	.	4D\	od-	.	4d\	od-	.	4f#/	od-	.	4a/	od-	.
=89	=89	=89	=89	=89	=89	=89	=89	=89	=89	=89	=89	=89	=89	=89
1DD_ 1D_	2en/ 2g	.	2D\	-bie-	.	2d\	-bie-	.	2en/	-bie-	.	2g/	-bie-	.
.	2d/ 2f#X	.	2D\	-ra	.	2d\	-ra	.	2d/	-ra	.	2f#X/	-ra	.
=90	=90	=90	=90	=90	=90	=90	=90	=90	=90	=90	=90	=90	=90	=90
!LO:LB:g=original	!LO:LB:g=original	!	!LO:LB:g=original	!	!	!LO:LB:g=original	!	!	!LO:LB:g=original	!	!	!LO:LB:g=original	!	!
1DD_ 1D_	2f#X/ 2a 2dd	.	2r	.	.	2r	.	.	2r	.	.	2r	.	.
.	2f#/ 2a	.	2D\	on	.	2F#X/	on	.	2d/	on	.	2a/	on	.
=91	=91	=91	=91	=91	=91	=91	=91	=91	=91	=91	=91	=91	=91	=91
1DD_ 1D_	2g/ 2b-	.	2D\	przez	.	2G/	przez	.	2d/	przez	.	2b-/	przez	.
.	2f#X/ 2a	.	2D\	Pro-	.	2F#X/	Pro-	.	2d/	Pro-	.	2a/	Pro-	.
=92	=92	=92	=92	=92	=92	=92	=92	=92	=92	=92	=92	=92	=92	=92
1DD] 1D]	2d/ 2b- 2dd	.	2D\	-ro-	.	2B-\	-ro-	.	2d/	-ro-	.	2dd\	-ro-	.
.	2f#X/ 2a 2cc	.	2D\	-ków	.	2A\	-ków	.	2f#X/	-ków	.	2cc\	-ków	.
=93	=93	=93	=93	=93	=93	=93	=93	=93	=93	=93	=93	=93	=93	=93
1GG 1G	2g/ 2b-	.	2GG\ 2G	u-	.	2d\	u-	.	2g/	u-	.	2b-/	u-	.
.	4fn/ 4a	.	4GG\ 4G	-sta	.	4d\	-sta	.	4fn/	-sta	.	4a/	-sta	.
.	4en/ 4g	.	4GG\ 4G	skry-	.	4d\	skry-	.	4en/	skry-	.	4g/	skry-	.
=94	=94	=94	=94	=94	=94	=94	=94	=94	=94	=94	=94	=94	=94	=94
[>1AA [1A	2d/ 2fn	.	2A\	-to-	.	2d\	-to-	.	2d/	-to-	.	2fn/	-to-	.
.	4c#X/ 4en 4g	.	4A\	-śći	.	4c#X\	-śći	.	4en/	-śći	.	4g/	-śći	.
.	[4d/ 4f	.	4A\	ot-	.	4d\	ot-	.	4d/	ot-	.	4f/	ot-	.
=95	=95	=95	=95	=95	=95	=95	=95	=95	=95	=95	=95	=95	=95	=95
*	*^	*	*	*	*	*	*	*	*	*	*	*	*	*
1AA] 1A]	1en	4d\]	.	1AA	-wie-	.	(2.A/	-wie-	.	(>4d/	-wie-	.	1en	-wie-	.
.	.	8c#X\L	.	.	.	.	.	.	.	8c#X/L	.	.	.	.	.
.	.	8Bn\J	.	.	.	.	.	.	.	8Bn/J	.	.	.	.	.
.	.	2c#/	.	.	.	.	.	.	.	2c#/)	.	.	.	.	.
.	.	.	.	.	.	.	4G/)	.	.	.	.	.	.	.	.
*	*v	*v	*	*	*	*	*	*	*	*	*	*	*	*	*
=96	=96	=96	=96	=96	=96	=96	=96	=96	=96	=96	=96	=96	=96	=96
*^	*	*	*	*	*	*	*	*	*	*	*	*	*	*
1D 1Fn 1A	1DD	1d	.	2D\	-ra.	.	2Fn/	-ra.	.	2d/	-ra	.	2d/	-ra	.
.	.	.	.	2r	.	.	2r	.	.	2r	.	.	2r	.	.
=97	=97	=97	=97	=97	=97	=97	=97	=97	=97	=97	=97	=97	=97	=97	=97
1F 1A	[1CC 1C	[>1e-X	.	1r	.	.	1r	.	.	1r	.	.	1r	.	.
=98	=98	=98	=98	=98	=98	=98	=98	=98	=98	=98	=98	=98	=98	=98	=98
2ryy	2CC\] 2C	2F< 2A< 2e-X/]	.	2A\	Wie-	.	2A\	Wie-	.	2a/	Wie-	.	2a/	Wie-	.
2ryy	2BBB-/ 2BB-	2F< 2B-< 2d/	.	2B-\	-rze	.	2B-\	-rzę	.	2b-/	-rzę	.	2b-/	-rzę	.
=99	=99	=99	=99	=99	=99	=99	=99	=99	=99	=99	=99	=99	=99	=99	=99
2A/ 2c	1FF 1F	2ryy	.	2c\	w Koś-	.	2c\	w Koś-	.	2cc\	w Koś-	.	2cc\	w Koś-	.
!	!	!	!	!	!	!	!	!	!	!LO:TX:a:t=SIC:s=4b-	!	!	!	!	!
2ryy	.	4B-/ 4d	.	4B-\	-ćioł	.	4B-\	-ćioł	.	4cc\	-ćioł	.	4b-\	-ćioł	.
!	!	!	!	!	!	!	!	!	!	!LO:TX:a:t=SIC:s=4a	!	!	!	!	!
.	.	4c/ 4e-	.	4A\	po-	.	4A\	po-	.	4b-\	po-	.	4a\	po-	.
=100	=100	=100	=100	=100	=100	=100	=100	=100	=100	=100	=100	=100	=100	=100	=100
1F	[1BBB- [>1BB-	1B- 1d	.	2B-\	-wszech-	.	2B-\	-wszech-	.	2b-/	-wszech-	.	2b-\	-wszech-	.
.	.	.	.	2d\	-ny	.	2d\	-ny	.	2dd\	-ny	.	2dd\	-ny	.
=101	=101	=101	=101	=101	=101	=101	=101	=101	=101	=101	=101	=101	=101	=101	=101
4ryy	1BBB-] 1BB-]	4G< 4c/ 4e-	.	4c\	wia-	.	4c\	wia-	.	4cc\	wia-	.	4cc\	wia-	.
4ryy	.	4B-/ 4d	.	4B-\	-rą	.	4B-\	-rą	.	4b-\	-rą	.	4b-\	-rą	.
2ryy	.	4c/ 4e- 4a	.	4A\	nie	.	4A\	nie	.	4a/	nie	.	4a/	nie	.
.	.	4d/ 4f 4b-	.	4B-\	za-	.	4B-\	za-	.	4b-/	za-	.	4b-/	za-	.
=102	=102	=102	=102	=102	=102	=102	=102	=102	=102	=102	=102	=102	=102	=102	=102
2ryy	2EE-/ 2E-	2B-/ 2e- 2g	.	2G\	-chwia-	.	2G/	-chwia-	.	2g/	-chwia-	.	2g/	-chwia-	.
2ryy	[2DD\ [2D	[>2G< 2Bn/ [2f	.	4G\	-ną	.	4G/	-ną	.	4g/	-ną	.	4g/	-ną	.
.	.	.	.	4r	.	.	4r	.	.	4r	.	.	4r	.	.
=103	=103	=103	=103	=103	=103	=103	=103	=103	=103	=103	=103	=103	=103	=103	=103
!LO:PB:g=original	!LO:PB:g=original	!	!LO:PB:g=original	!	!	!LO:PB:g=original	!	!	!LO:PB:g=original	!	!	!LO:PB:g=original	!	!	!
2ryy	2DD\] 2D]	2G<] 2Bn/ 2f]	.	2Bn\	Wie-	.	2Bn\	Wie-	.	2bn\	Wie-	.	2bn\	Wie-	.
2CC/ 2C	2ryy	2c/ 2e-	.	2c\	-rzę	.	2c\	-rzę	.	2cc\	-rzę	.	2cc\	-rzę	.
=104	=104	=104	=104	=104	=104	=104	=104	=104	=104	=104	=104	=104	=104	=104	=104
2Bn/ 2d	1GG 1G	2.ryy	.	2d\	w_Chrzest	.	2d\	w_Chrzest	.	2dd\	w_Chrzest	.	2dd\	w_Chrzest	.
4c/ 4e-	.	.	.	4c\	i	.	4c\	i	.	4cc\	i	.	4cc\	i	.
4ryy@	.	4d 4f	.	4Bn\	po-	.	4Bn\	po-	.	4bn\	po-	.	4bn\	po-	.
*v	*v	*	*	*	*	*	*	*	*	*	*	*	*	*	*
=105	=105	=105	=105	=105	=105	=105	=105	=105	=105	=105	=105	=105	=105	=105
[>1CC [>1C 1G	1c 1e-	.	2c\	-ku-	.	2c\	-ku-	.	2cc\	-ku-	.	2cc\	-ku-	.
.	.	.	2e-\	-tę	.	2e-\	-tę	.	2ee-\	-tę	.	2ee-\	-tę	.
=106	=106	=106	=106	=106	=106	=106	=106	=106	=106	=106	=106	=106	=106	=106
1CC] 1C]	4Bn/ 4d 4f	.	4d\	na	.	4d\	na	.	4dd\	na	.	4dd\	na	.
.	4c/ 4e-	.	4c\	grze-	.	4c\	grze-	.	4cc\	grze-	.	4cc\	grze-	.
.	4d/ 4f 4bn	.	4Bn\	-chów	.	4Bn\	-chów	.	4bn\	-chów	.	4bn\	-chów	.
.	4e-/ 4g 4cc	.	4c\	ob-	.	4c\	ob-	.	4cc\	ob-	.	4cc\	ob-	.
=107	=107	=107	=107	=107	=107	=107	=107	=107	=107	=107	=107	=107	=107	=107
2FF/ 2F	2c/ 2f 2a-X	.	2A-X\	-my-	.	2A-X/	-my-	.	2a-X/	-my-	.	2a-X/	-my-	.
[2FF/ [2F	[2a-/ 2b- [2dd	.	4A-\	-cie	.	4A-/	-cie	.	4a-/	-cie	.	4a-/	-cie	.
.	.	.	4r	.	.	4r	.	.	4r	.	.	4r	.	.
=108	=108	=108	=108	=108	=108	=108	=108	=108	=108	=108	=108	=108	=108	=108
2FF/] 2F]	2a-X/] 2b- 2dd]	.	2d\	wie-	.	2d\	wie-	.	2dd\	wie-	.	2dd\	wie-	.
2EE-/ 2E-	2g\ 2b- 2ee-	.	4e-\	-rzę	.	4e-\	-rzę	.	4ee-\	-rzę	.	4ee-\	-rzę	.
.	.	.	4E-\	że	.	4e-\	że	.	4g/	że	.	4b-\	że	.
=109	=109	=109	=109	=109	=109	=109	=109	=109	=109	=109	=109	=109	=109	=109
1EE- 1E-	2a-X/ 2cc	.	2E-\	z_gro-	.	2c\	z_gro-	.	2a-X/	z_gro-	.	2cc\	z_gro-	.
.	2g/ 2b-	.	2E-\	-bów	.	2e-\	-bów	.	2g/	-bów	.	2b-\	-bów	.
=110	=110	=110	=110	=110	=110	=110	=110	=110	=110	=110	=110	=110	=110	=110
2.EE-/ 2.E-	2f/ 2an 2cc	.	2E-\	swoi-	.	2c\	swoi-	.	2f#X/	swoi-	.	2an/	swoi-	.
.	4g/ 4b-	.	4E-\	-ch	.	4B-\	-ch	.	4g/	-ch	.	4b-/	-ch	.
4DD/ 4D	4f/ 4g 4bn	.	4D\	u-	.	4G\	u-	.	4fn/	u-	.	4bn/	u-	.
=111	=111	=111	=111	=111	=111	=111	=111	=111	=111	=111	=111	=111	=111	=111
*	*^	*	*	*	*	*	*	*	*	*	*	*	*	*
*	*	*^	*	*	*	*	*	*	*	*	*	*	*	*	*
4CC/ 4C	4cc/	2g\	4e-\	.	(4C/	-mar-	.	2G/	-mar-	.	(4e-/	-mar-	.	(4cc\	-mar-	.
4BBBn/ 4BBn	4dd/	.	4f\	.	4BBn/)	.	.	.	.	.	4f/)	.	.	4dd\)	.	.
4CC/ 4C	4cc/ 4ee-	2e-\	2ryy	.	4C/	-li	.	4G/	-li	.	4e-/	-li	.	4ee-\	-li	.
4EE-/ 4E-	4cc/	.	.	.	4E-\	po-	.	4c\	po-	.	4g/	po-	.	4cc\	po-	.
*	*v	*v	*v	*	*	*	*	*	*	*	*	*	*	*	*	*
=112	=112	=112	=112	=112	=112	=112	=112	=112	=112	=112	=112	=112	=112	=112
2GG\ [2G	2d/ 2g 2bn	.	2G\	-wsta-	.	2d\	-wsta-	.	2g/	-wsta-	.	2bn\	-wsta-	.
4GG\ 4G]	4g/ 4b 4dd	.	4G\	-ną	.	4Bn\	-ną	.	4g/	-ną	.	4dd\	-ną	.
(4GG\ 4G	(4g\ 4gg	f	4r	.	.	4r	.	.	4r	.	.	4r	.	.
=113||	=113||	=113||	=113||	=113||	=113||	=113||	=113||	=113||	=113||	=113||	=113||	=113||	=113||	=113||
*k[f#]	*k[f#]	*	*k[f#]	*	*	*k[f#]	*	*	*k[ff#]	*	*	*k[f#]	*	*
!	!	!	!	!	!	!LO:TX:a:t=problem:krzyżyk przy kluczu oktawę wyżej	!	!	!	!	!	!	!	!
2FF#\) 2F#	2f#\) 2ff#	.	2F#\	Wie-	.	2f#\	Wie-	.	2f#/	Wie-	.	2ff#\	Wie-	.
4GG\ 4G	4g\ 4gg	.	4G\	-rzę	.	4g\	-rzę	.	4g/	-rzę	.	4gg\	-rzę	.
4CC/ 4C	4g\ 4cc 4ee	.	4C/	że	.	4G/	że	.	4cc/	że	.	4ee\	że	.
=114	=114	=114	=114	=114	=114	=114	=114	=114	=114	=114	=114	=114	=114	=114
[1DD [1D	2g/ 2b 2dd	.	2D\	w_no-	.	2G/	w_no-	.	2b\	w_no-	.	2dd\	w_no-	.
.	2d/ 2g 2b	.	2D\	-wym	.	(4B\	-wym	.	2g/	-wym	.	2b\	-wym	.
.	.	.	.	.	.	4d\)	.	.	.	.	.	.	.	.
=115	=115	=115	=115	=115	=115	=115	=115	=115	=115	=115	=115	=115	=115	=115
1DD] 1D]	2d/ 2a 2cc	.	2D\	świe-	.	2.d\	świe-	.	2a/	świe-	.	2cc\	świe-	.
.	2f#/ 2a	.	2D\	-ćie	.	.	.	.	2f#/	-ćie	.	2a/	-ćie	.
.	.	.	.	.	.	4c\	-ćie	.	.	.	.	.	.	.
=116	=116	=116	=116	=116	=116	=116	=116	=116	=116	=116	=116	=116	=116	=116
!LO:LB:g=original	!LO:LB:g=original	!	!LO:LB:g=original	!	!	!LO:LB:g=original	!	!	!LO:LB:g=original	!	!	!LO:LB:g=original	!	!
*	*^	*	*	*	*	*	*	*	*	*	*	*	*	*
2.GG/ 2.G	4g/ 4b	2d\	.	4G\	no-	.	4B\	no-	.	4g/	no-	.	4b\	no-	.
.	4a/ 4cc	.	.	4G\	-we	.	4A\	-we	.	4a/	-we	.	4cc\	-we	.
.	4b/ 4dd	4g\	.	4G\	wez-	.	4G\	wez-	.	4b/	wez-	.	4dd\	wez-	.
4CC/ 4C	8cc/L 8ee	4e\	.	4C\	-mą	.	8G\L	-mą	.	8cc\L	-mą	.	8ee\L	-mą	.
.	8a/J 8cc	.	.	.	.	.	8A\J	.	.	8e\J	.	.	8cc\J	.	.
=117	=117	=117	=117	=117	=117	=117	=117	=117	=117	=117	=117	=117	=117	=117	=117
1DD 1D	2g/ 2b	1d	.	1D	ży-	.	(>2B\	ży-	.	(>2g/	ży-	.	(>2b/	ży-	.
.	2f#/ 2a	.	.	.	.	.	2c\	.	.	2f#X/	.	.	2a/	.	.
*	*v	*v	*	*	*	*	*	*	*	*	*	*	*	*	*
=118	=118	=118	=118	=118	=118	=118	=118	=118	=118	=118	=118	=118	=118	=118
2.GG/ 2.G	4g\ 4b	.	2BB/	-cie	.	2B\)	-cie	.	2g/)	-cie	.	2b/)	-cie	.
.	4a\ 4cc	.	.	.	.	.	.	.	.	.	.	.	.	.
.	4b\ 4dd	.	2r	.	.	2r	.	.	2r	.	.	2r	.	.
4r	4cc\ 4ee	.	.	.	.	.	.	.	.	.	.	.	.	.
=119	=119	=119	=119	=119	=119	=119	=119	=119	=119	=119	=119	=119	=119	=119
2CC#X/ 2C#X	2a\ 2cc 2ff#	.	2AA/	wie-	.	2f#\	wie-	.	2f#/	wie-	.	2ff#\	wie-	.
4DD/ 4D	4g\ 4b 4gg	.	4A\	-rzę	.	4g\	-rzę	.	4g/	-rzę	.	4gg\	-rzę	.
4CC#/ 4C#	4g\ 4cc 4ee	.	4C\	że	.	4G/	że	.	4cc/	że	.	4ee\	że	.
=120	=120	=120	=120	=120	=120	=120	=120	=120	=120	=120	=120	=120	=120	=120
[1DD [1D	2g/ 2b 2dd	.	2D\	w_no-	.	2G/	w_no-	.	2b\	w_no-	.	2dd\	w_no-	.
.	2d/ 2g 2b	.	2D\	-wym	.	4B\	-wym	.	2g/	-wym	.	2b\	-wym	.
.	.	.	.	.	.	4d\	.	.	.	.	.	.	.	.
=121	=121	=121	=121	=121	=121	=121	=121	=121	=121	=121	=121	=121	=121	=121
1DD] 1D]	2d/ 2a 2cc	.	2D\	świe-	.	2.d\	świe-	.	2g/	świe-	.	2cc\	świe-	.
.	2f#/ 2a	.	2D\	-ćie	.	.	.	.	2f#/	-ćie	.	2a/	-ćie	.
.	.	.	.	.	.	4c\	-ćie	.	.	.	.	.	.	.
=122	=122	=122	=122	=122	=122	=122	=122	=122	=122	=122	=122	=122	=122	=122
*	*^	*	*	*	*	*	*	*	*	*	*	*	*	*
2.GG/ 2.G	4g/ 4b	2ryy	.	4G\	no-	.	4B\	no-	.	4g/	no-	.	4b\	no-	.
.	4a/ 4cc	.	.	4G\	-we	.	4A\	-we	.	4a/	-we	.	4cc\	-we	.
.	4g/ 4b 4dd	4ryy	.	4G\	wez-	.	4G/	wez-	.	4b/	wez-	.	4dd\	wez-	.
4CC/ 4C	8cc/L 8ee	4e\	.	4C\	-mą	.	8G\L	-mą	.	8cc\L	-mą	.	8ee\L	-mą	.
.	8a/J 8cc	.	.	.	.	.	8A\J	.	.	8e\J	.	.	8cc\J	.	.
*	*v	*v	*	*	*	*	*	*	*	*	*	*	*	*	*
=123	=123	=123	=123	=123	=123	=123	=123	=123	=123	=123	=123	=123	=123	=123
1DD 1D	2d/ 2g 2b	.	[1D	ży-	.	(2B\	ży-	.	[1g	ży-	.	(1b	ży-	.
.	2b\ 2dd 2gg	.	.	.	.	2d\	.	.	.	.	.	.	.	.
=124	=124	=124	=124	=124	=124	=124	=124	=124	=124	=124	=124	=124	=124	=124
*	*^	*	*	*	*	*	*	*	*	*	*	*	*	*
*	*	*^	*	*	*	*	*	*	*	*	*	*	*	*	*
1DD 1D	4gg/	2dd/	1a	.	1D]	.	.	2.d\	.	.	4g/]	.	.	1a)	.	.
.	8ff#/L	.	.	.	.	.	.	.	.	.	8f#/L	.	.	.	.	.
.	8ee/J	.	.	.	.	.	.	.	.	.	8e/J	.	.	.	.	.
.	2ff#/	2ryy	.	.	.	.	.	.	.	.	2f#/	.	.	.	.	.
.	.	.	.	.	.	.	.	4c\)	.	.	.	.	.	.	.	.
*	*v	*v	*v	*	*	*	*	*	*	*	*	*	*	*	*	*
=125	=125	=125	=125	=125	=125	=125	=125	=125	=125	=125	=125	=125	=125	=125
2GG\ 2G	4g\ 4b 4gg	.	2G\	-cie	.	2B\	-cie	.	2g/	-cie	.	2g/	-cie	.
.	4g\ 4b	.	.	.	.	.	.	.	.	.	.	.	.	.
2r	4f#\ 4a 4cc	.	2r	.	.	2r	.	.	2r	.	.	2r	.	.
.	4fn\ 4b 4dd	.	.	.	.	.	.	.	.	.	.	.	.	.
=126	=126	=126	=126	=126	=126	=126	=126	=126	=126	=126	=126	=126	=126	=126
1CC 1C	2.e\ 2.g 2.cc 2.ee	.	2.C/	no-	.	2.c\	no-	.	2.g/	no-	.	2.ee\	no-	.
.	4f#\ 4a 4cc 4ee-X	.	4C/	-we	.	4A\	-we	.	4f#X/	-we	.	4ee-X\	-we	.
=127	=127	=127	=127	=127	=127	=127	=127	=127	=127	=127	=127	=127	=127	=127
[1GG [1G	[1g [1b [1dd	.	1G	ży-	.	1B	ży-	.	1g	ży-	.	1dd	ży-	.
=128	=128	=128	=128	=128	=128	=128	=128	=128	=128	=128	=128	=128	=128	=128
2.GG\] 2.G]	2.g\] 2.b] 2.dd]	.	2.G\	-cie.	.	2.B\	-cie.	.	2.g/	-cie.	.	2.dd\	-cie.	.
4r	4r	.	4r	.	.	4r	.	.	4r	.	.	4r	.	.
==	==	==	==	==	==	==	==	==	==	==	==	==	==	==
*-	*-	*-	*-	*-	*-	*-	*-	*-	*-	*-	*-	*-	*-	*-
!!!system-decoration: [g1{g2}]
!!!RDF**kern: > = above
!!!RDF**kern: < = below
!!!ENC: Anna Matuszewska
!!!END: 2020-04-03
!!!YEC: Copyright 2022 Narodowy Instytut Fryderyka Chopina (https://polishscores.org)
!!!YEM: License CC-BY-4.0 (https://creativecommons.org/licenses/by/4.0)
